X:1
T:Title
%%score { 1 | 2 }
L:1/8
M:4/4
K:G
V:1 treble nm="Grand Piano"
V:2 treble 
V:1
 z4 z2[Q:1/4=96] Bc | d2 e2 d2 BA | [EG]>[EA] [EG][CE] [EG]2 FG | A2 B2 ccBB | [FA]6 Bc | %5
 d2 e2 d2 BA | [EG]>[EA] [EG][CE] [EG]2 FE | DD[DG][EA] [DB]2 [CDA]2 |[M:3/4] [G,B,DG]6 | %9
[M:1/4] [DG][GB] |[M:4/4] [Ec]2 [Ec]2 [Ec][Ec][Gc]c | e>d d>c B2 Bc | d2 B2 GGAB | [FA]6 Bc | %14
 d2 e2 d2 BA | [EG]>[EA] [EG][CE] [EG]2 FE | DD[DG][EA] [DB]2 [CDA]2 |[M:7/4] [G,B,DG]6 z2 z2 z4 |] %18
V:2
 z4 z2 [G,D][G,A,D] | [G,B,G]2 [G,CG]2 [G,B,G]2[K:bass] [G,D][G,D] | %2
 [C,G,]>[C,G,] [C,G,][C,G,] [C,G,]2 [D,D][E,D] | %3
 [F,D]2[K:treble] [G,DG]2 [A,DF][A,DF][G,DG][G,DG] | [D,D]6 [G,D][K:treble][G,A,D] | %5
 [G,B,G]2 [G,CG]2 [G,B,G]2 [G,D][K:bass][G,D] | [C,G,]>[C,G,] [C,G,][C,G,] [C,G,]2 [C,G,C][C,G,C] | %7
 [B,,G,][B,,G,][B,,G,][C,G,] D,2 D,2 |[M:3/4] G,,6 |[M:1/4] G,G, | %10
[M:4/4] [C,G,]2 [C,G,]2 [C,A,][D,A,][E,A,][F,A,D] | %11
 [G,CG]>[G,B,G] [G,B,G]>[G,A,D] [G,D]2 [G,G][G,A,G] | [G,B,G]2 [G,DG]2 [B,D][B,D][A,DF][G,DG] | %13
 [D,D]6 [G,D][K:treble][G,A,D] | [G,B,G]2 [G,CG]2 [G,B,G]2 [G,D][K:bass][G,D] | %15
 [C,G,]>[C,G,] [C,G,][C,G,] [C,G,]2 [C,G,C][C,G,C] | [B,,G,][B,,G,][B,,G,][C,G,] D,2 D,2 | %17
[M:7/4] G,,6 z2 z2 z4 |] %18

